dist/svgs/core-ui-icons/free/cil-devices.svg

<svg xmlns="http://www.w3.org/2000/svg" viewBox="0 0 512 512"><path d="M472 232h-48V120a24.028 24.028 0 00-24-24H40a24.028 24.028 0 00-24 24v246a24.028 24.028 0 0024 24h172v50h-60v32h152v-32h-60v-50h92v58a24.027 24.027 0 0024 24h112a24.027 24.027 0 0024-24V256a24.027 24.027 0 00-24-24zm-136 24v102H48V128h344v104h-32a24.027 24.027 0 00-24 24zm128 184h-96V264h96z"/></svg>

<svg xmlns="http://www.w3.org/2000/svg" viewBox="0 0 512 512">
  <path fill="var(--ci-primary-color, currentColor)" d="M472,232H424V120a24.028,24.028,0,0,0-24-24H40a24.028,24.028,0,0,0-24,24V366a24.028,24.028,0,0,0,24,24H212v50H152v32H304V440H244V390h92v58a24.027,24.027,0,0,0,24,24H472a24.027,24.027,0,0,0,24-24V256A24.027,24.027,0,0,0,472,232ZM336,256V358H48V128H392V232H360A24.027,24.027,0,0,0,336,256ZM464,440H368V264h96Z" class="ci-primary"/>
</svg>
